svg/300/outlined/tab_unselected-fill.svg

<svg xmlns="http://www.w3.org/2000/svg" width="48" height="48" viewBox="0 -960 960 960"><path d="M157.694-180.001q-23.529 0-40.611-17.082-17.082-17.082-17.082-40.611v-.769h45.384v.769q0 4.616 3.846 8.463 3.847 3.846 8.463 3.846h3.846v45.384h-3.846Zm-57.693-143.845v-62.693h45.384v62.693h-45.384Zm0-148.076v-62.693h45.384v62.693h-45.384Zm0-148.077v-102.307q0-23.529 17.082-40.611 17.082-17.082 40.611-17.082h102.307v45.384H157.694q-5.77 0-9.04 3.269-3.269 3.27-3.269 9.04v102.307h-45.384Zm146.923 439.998v-45.384h65.769v45.384h-65.769Zm101.154-554.614v-45.384h65.769v45.384h-65.769Zm49.999 554.614v-45.384h65.769v45.384h-65.769Zm101.154-394.614v-205.384h303.075q23.529 0 40.611 17.082 17.082 17.082 17.082 40.611v147.691H499.231Zm49.999 394.614v-45.384H615v45.384h-65.77Zm151.153 0v-45.384h101.923q5.77 0 9.04-3.269 3.269-3.27 3.269-9.04v-102.307h45.384v102.307q0 23.529-17.082 40.611-17.082 17.082-40.611 17.082H700.383Zm114.232-246.538v-62.692h45.384v62.692h-45.384Z"/></svg>

<svg xmlns="http://www.w3.org/2000/svg" width="48" height="48" viewBox="0 -960 960 960"><path d="M157.69-180q-23.53 0-40.61-17.08T100-237.69v-.77h45.39v.77q0 4.61 3.84 8.46 3.85 3.84 8.46 3.84h3.85V-180h-3.85ZM100-323.85v-62.69h45.39v62.69H100Zm0-148.07v-62.69h45.39v62.69H100ZM100-620v-102.31q0-23.53 17.08-40.61T157.69-780H260v45.39H157.69q-5.77 0-9.04 3.26-3.26 3.27-3.26 9.04V-620H100Zm146.92 440v-45.39h65.77V-180h-65.77Zm101.16-554.61V-780h65.77v45.39h-65.77Zm50 554.61v-45.39h65.77V-180h-65.77Zm101.15-394.61V-780h303.08q23.53 0 40.61 17.08T860-722.31v147.7H499.23Zm50 394.61v-45.39H615V-180h-65.77Zm151.15 0v-45.39h101.93q5.77 0 9.04-3.26 3.26-3.27 3.26-9.04V-340H860v102.31q0 23.53-17.08 40.61T802.31-180H700.38Zm114.23-246.54v-62.69H860v62.69h-45.39Z"/></svg>
